packages/astro-components-stencil/src/icons/enhanced-encryption.svg

<svg xmlns="http://www.w3.org/2000/svg" viewBox="0 0 24 24"><g xmlns="http://www.w3.org/2000/svg" id="enhanced-encryption" fill-rule="nonzero">
            <path d="M18 8h-1V6c0-2.76-2.24-5-5-5S7 3.24 7 6v2H6c-1.1 0-2 .9-2 2v10c0 1.1.9 2 2 2h12c1.1 0 2-.9 2-2V10c0-1.1-.9-2-2-2zM8.9 6c0-1.71 1.39-3.1 3.1-3.1 1.71 0 3.1 1.39 3.1 3.1v2H8.9V6zM15 16h-2v2c0 .55-.45 1-1 1s-1-.45-1-1v-2H9c-.55 0-1-.45-1-1s.45-1 1-1h2v-2c0-.55.45-1 1-1s1 .45 1 1v2h2c.55 0 1 .45 1 1s-.45 1-1 1z"/>
        </g></svg>

<svg width="24" height="24" viewBox="0 0 24 24" fill="none" xmlns="http://www.w3.org/2000/svg">
<path fill-rule="evenodd" clip-rule="evenodd" d="M18 8H17V6C17 3.24 14.76 1 12 1C9.24 1 7 3.24 7 6V8H6C4.9 8 4 8.9 4 10V20C4 21.1 4.9 22 6 22H18C19.1 22 20 21.1 20 20V10C20 8.9 19.1 8 18 8ZM8.9 6C8.9 4.29 10.29 2.9 12 2.9C13.71 2.9 15.1 4.29 15.1 6V8H8.9V6ZM13 16H15C15.55 16 16 15.55 16 15C16 14.45 15.55 14 15 14H13V12C13 11.45 12.55 11 12 11C11.45 11 11 11.45 11 12V14H9C8.45 14 8 14.45 8 15C8 15.55 8.45 16 9 16H11V18C11 18.55 11.45 19 12 19C12.55 19 13 18.55 13 18V16Z" fill="black"/>
</svg>
